X:1615
T:Harvest Home
A:Wyresdale, Lancashire
B:E and J Winder, 1835-41
L:1/8
M:C|
O:England
Z:Richard Robinson 
%%RRN:bar 2 of B part is missing.
%%TUNEURL: http://www.leeds.ac.uk/music/Info/RRTuneBk/gettune/00001259.html
%%ID:00001259
K:D
A2 | \
DAFA DAFA | defe dcBA | gefd edcd | edcB AGFE |
DAFA DAFA | defe dcBA | gefd cABc | d2f2 d2 ::
f2 | \
eA A/A/A  eA A/A/A  | eAfA gAfA | edcB AGFE |
DAFA DAFA | defe dcBA | gefd cABc | d2f2 d2 :|
